symbols/web/attach_email/materialsymbolsrounded/attach_email_wght600gradN25fill1_40px.svg

<svg xmlns="http://www.w3.org/2000/svg" height="40" width="40"><path d="M32.583 37.25q-2.583 0-4.375-1.854-1.791-1.854-1.791-4.438v-8.666q0-1.584 1.104-2.688t2.687-1.104q1.584 0 2.667 1.104 1.083 1.104 1.083 2.688v7.333q0 .625-.396 1.063-.395.437-1.062.437-.625 0-1.042-.437-.416-.438-.416-1.063v-7.417q0-.416-.209-.75-.208-.333-.625-.333-.416 0-.646.333-.229.334-.229.75V31q0 1.458.917 2.521.917 1.062 2.333 1.062 1.375 0 2.25-1.041.875-1.042.875-2.417v-6.333q0-.584.438-1.021.437-.438 1.062-.438t1.042.438q.417.437.417 1.021v6.333q0 2.542-1.771 4.333-1.771 1.792-4.313 1.792ZM4.958 30.458q-1.5 0-2.562-1.041-1.063-1.042-1.063-2.5V6.5q0-1.417 1.042-2.479 1.042-1.063 2.5-1.063h27.042q1.416 0 2.479 1.063 1.062 1.062 1.062 2.479v10.667h-5.541q-2.042 0-3.438 1.541-1.396 1.542-1.396 3.584v8.166Zm13.417-12.333q.292 0 .5-.063.208-.062.458-.187l11.917-7.708q.25-.167.458-.459.209-.291.209-.666 0-.834-.709-1.229-.708-.396-1.416.062l-11.417 7.25L6.958 7.958q-.666-.375-1.375-.083-.708.292-.708 1.125 0 .417.187.688.188.27.438.479l11.917 7.708q.25.125.479.187.229.063.479.063Z"/></svg>

<svg xmlns="http://www.w3.org/2000/svg" height="40" width="40"><path d="M32.583 37.25Q30 37.25 28.208 35.396Q26.417 33.542 26.417 30.958V22.292Q26.417 20.708 27.521 19.604Q28.625 18.5 30.208 18.5Q31.792 18.5 32.875 19.604Q33.958 20.708 33.958 22.292V29.625Q33.958 30.25 33.562 30.688Q33.167 31.125 32.5 31.125Q31.875 31.125 31.458 30.688Q31.042 30.25 31.042 29.625V22.208Q31.042 21.792 30.833 21.458Q30.625 21.125 30.208 21.125Q29.792 21.125 29.562 21.458Q29.333 21.792 29.333 22.208V31Q29.333 32.458 30.25 33.521Q31.167 34.583 32.583 34.583Q33.958 34.583 34.833 33.542Q35.708 32.5 35.708 31.125V24.792Q35.708 24.208 36.146 23.771Q36.583 23.333 37.208 23.333Q37.833 23.333 38.25 23.771Q38.667 24.208 38.667 24.792V31.125Q38.667 33.667 36.896 35.458Q35.125 37.25 32.583 37.25ZM4.958 30.458Q3.458 30.458 2.396 29.417Q1.333 28.375 1.333 26.917V6.5Q1.333 5.083 2.375 4.021Q3.417 2.958 4.875 2.958H31.917Q33.333 2.958 34.396 4.021Q35.458 5.083 35.458 6.5V17.167H29.917Q27.875 17.167 26.479 18.708Q25.083 20.25 25.083 22.292V30.458ZM18.375 18.125Q18.667 18.125 18.875 18.062Q19.083 18 19.333 17.875L31.25 10.167Q31.5 10 31.708 9.708Q31.917 9.417 31.917 9.042Q31.917 8.208 31.208 7.813Q30.5 7.417 29.792 7.875L18.375 15.125L6.958 7.958Q6.292 7.583 5.583 7.875Q4.875 8.167 4.875 9Q4.875 9.417 5.062 9.688Q5.25 9.958 5.5 10.167L17.417 17.875Q17.667 18 17.896 18.062Q18.125 18.125 18.375 18.125Z"/></svg>
